src/window-open.svg

<?xml version="1.0" encoding="UTF-8" standalone="no"?>
<svg width="20px" height="20px" viewBox="0 0 20 20" version="1.1" xmlns="http://www.w3.org/2000/svg" xmlns:xlink="http://www.w3.org/1999/xlink">
    <!-- Generator: Sketch 3.7.2 (28276) - http://www.bohemiancoding.com/sketch -->
    <title>window-open</title>
    <desc>Created with Sketch.</desc>
    <defs></defs>
    <g id="Page-1" stroke="none" stroke-width="1" fill="none" fill-rule="evenodd">
        <g id="window-open" fill="#000000">
            <path d="M0,2.99508929 C0,1.8932319 0.898212381,1 1.99079514,1 L18.0092049,1 C19.1086907,1 20,1.8926228 20,2.99508929 L20,17.0049107 C20,18.1067681 19.1017876,19 18.0092049,19 L1.99079514,19 C0.891309342,19 0,18.1073772 0,17.0049107 L0,2.99508929 Z M2,5 L18,5 L18,17 L2,17 L2,5 Z M10,8 L14,13 L6,13 L10,8 Z" id="Combined-Shape"></path>
        </g>
    </g>
</svg>

<svg xmlns="http://www.w3.org/2000/svg" viewBox="0 0 20 20"><path d="M0 3c0-1.1.9-2 2-2h16a2 2 0 0 1 2 2v14a2 2 0 0 1-2 2H2a2 2 0 0 1-2-2V3zm2 2v12h16V5H2zm8 3l4 5H6l4-5z"/></svg>
